X: 1
T: Te Hokinga Mai
O: Maori
N: Transposed
Z: https://www.thesumoftheparts.com.au/wp-content/uploads/2016/12/Te-Hokinga-Mai-Vocals-only-.pdf
M: C
L: 1/8
Q:1/4=80
K:Eb
"Eb"z2 B>B B3 B|"Eb7"G/F/E- E4 FG|"Ab"A A2>A2 A2 C|E6-Ec|
"Eb"BG2 G/G/ GG- GG|"Bb"AG F2 FE2D|"Ab"E4-E2-EF|"Eb"E8|
z2 BB B2>B2|"Eb7"G/F/E-E4EG|"Ab"AA3A3C|E8|
"Eb"BG2 G/G/G3A|"Bb"GF-F2-F2 ED|"Ab"EE3 (3E2E2F2|"Eb"E8|
|:"Eb"BB2 BB B3|"Ab"c6Bc|"Eb"B/A/G-G6|z8|
"Eb"BB BB BB B2-|"Ab"Bzc3cBc|"Eb"B/A/G-G6|
"Eb7"z4GA2B|"Ab"A3E (3A2B2c2|"Bb"B3B (3B2B2B2|
"Eb"B3B BB GF|"Ab"E4-EE EE|"F"F6F2|
"F7"=AA3zB-Bc|"Bb"B6cB|"Bb7"d4-de e/e/e-|
"Eb"e4 e B2 B|"Eb7"GG4-G AB|"Ab"A4-A2 C|
E6-Ec|"Eb"BG GG3 GA|"Bb"G F2 FF3 C|
"Ab"E6 EF|[1 E8:|[2 E6 zc:|
"Eb"BG GG3 GA|"Bb"GF2FF3C|"Ab"E8|
"Ab"E6E2|"Eb"B2zB BB BB-|B3B BB BB-|
HB4B2B2|B2HB2z2B2|B8|]

